mate/scalable/animations/fo.svg

<?xml version="1.0" encoding="UTF-8" standalone="no"?>
<!-- Created with Sodipodi ("http://www.sodipodi.com/") -->

<!-- /Creative Commons Public Domain -->

<!--
<rdf:RDF xmlns="http://web.resource.org/cc/"
    xmlns:dc="http://purl.org/dc/elements/1.1/"
    xmlns:rdf="http://www.w3.org/1999/02/22-rdf-syntax-ns#">
<Work rdf:about="">
   <dc:title>SVG image of Aaland and Faore flags</dc:title>
   <dc:rights><Agent>
      <dc:title>Christian Schaller</dc:title>
   </Agent></dc:rights>
   <license rdf:resource="http://web.resource.org/cc/PublicDomain" />
</Work>

<License rdf:about="http://web.resource.org/cc/PublicDomain">
   <permits rdf:resource="http://web.resource.org/cc/Reproduction" />
   <permits rdf:resource="http://web.resource.org/cc/Distribution" />
   <permits rdf:resource="http://web.resource.org/cc/DerivativeWorks" />
</License>
</rdf:RDF>
-->

<svg
   xmlns:dc="http://purl.org/dc/elements/1.1/"
   xmlns:cc="http://creativecommons.org/ns#"
   xmlns:rdf="http://www.w3.org/1999/02/22-rdf-syntax-ns#"
   xmlns:svg="http://www.w3.org/2000/svg"
   xmlns="http://www.w3.org/2000/svg"
   xmlns:sodipodi="http://sodipodi.sourceforge.net/DTD/sodipodi-0.dtd"
   xmlns:inkscape="http://www.inkscape.org/namespaces/inkscape"
   version="1"
   x="0"
   y="0"
   width="640"
   height="480"
   id="islenskifaninn"
   sodipodi:version="0.32"
   sodipodi:docname="fo.svg"
   inkscape:version="0.48.1 r9760">
  <sodipodi:namedview
     id="base"
     showgrid="false"
     inkscape:zoom="0.98242188"
     inkscape:cx="256"
     inkscape:cy="256"
     inkscape:window-width="1280"
     inkscape:window-height="746"
     inkscape:window-x="0"
     inkscape:window-y="24"
     inkscape:window-maximized="1"
     inkscape:current-layer="islenskifaninn"
     inkscape:snap-global="false" />
  <metadata
     id="metadata3168">
    <rdf:RDF>
      <cc:Work
         rdf:about="">
        <dc:format>image/svg+xml</dc:format>
        <dc:type
           rdf:resource="http://purl.org/dc/dcmitype/StillImage" />
      </cc:Work>
    </rdf:RDF>
  </metadata>
  <defs
     id="defs380">
    <clipPath
       id="clipPath3219"
       clipPathUnits="userSpaceOnUse">
      <rect
         y="-0.00021"
         width="488.01471"
         style="fill:#000000;fill-opacity:0.67000002;stroke:none"
         x="72.345291"
         height="488.01471"
         id="rect3221" />
    </clipPath>
    <clipPath
       clipPathUnits="userSpaceOnUse"
       id="clipPath3016">
      <rect
         id="rect3018"
         height="512"
         x="0"
         style="fill:#000000;fill-opacity:0.67000002;stroke:none"
         width="512"
         y="0" />
    </clipPath>
    <clipPath
       clipPathUnits="userSpaceOnUse"
       id="clipPath3688">
      <rect
         id="rect3690"
         height="480"
         x="-78.014923"
         style="fill:#000000;fill-opacity:0.67000002;stroke:none"
         width="640"
         y="32.000004" />
    </clipPath>
  </defs>
  <g
     transform="translate(78.014923,-32.000004)"
     id="flag"
     clip-path="url(#clipPath3688)"
     inkscape:label="#g3658">
    <rect
       id="blarfeldur"
       style="fill:#ffffff;fill-opacity:1;fill-rule:evenodd;stroke-width:0pt"
       y="32.000008"
       x="-78.014923"
       height="480"
       width="663.91437" />
    <path
       inkscape:connector-curvature="0"
       id="hviturkross"
       style="fill:#003897;fill-opacity:1;fill-rule:evenodd;stroke-width:0pt"
       d="m -76.033091,218.66667 185.896031,0 0,-186.666661 106.2263,0 0,186.666661 371.79206,0 0,106.66666 -371.79206,0 0,186.66667 -106.2263,0 0,-186.66667 -185.896031,0 0,-106.66666 z" />
    <path
       inkscape:connector-curvature="0"
       id="raudurkross"
       style="fill:#d72828;fill-opacity:1;fill-rule:evenodd;stroke-width:0pt"
       d="m -76.033091,245.33333 212.452611,0 0,-213.33333 53.11315,0 0,213.33333 398.34863,0 0,53.33334 -398.34863,0 0,213.33332 -53.11315,0 0,-213.33332 -212.452611,0 0,-53.33334 z" />
  </g>
</svg>

<?xml version="1.0" encoding="UTF-8" standalone="no"?>
<!-- Created with Sodipodi ("http://www.sodipodi.com/") -->

<svg
   xmlns:dc="http://purl.org/dc/elements/1.1/"
   xmlns:cc="http://creativecommons.org/ns#"
   xmlns:rdf="http://www.w3.org/1999/02/22-rdf-syntax-ns#"
   xmlns:svg="http://www.w3.org/2000/svg"
   xmlns="http://www.w3.org/2000/svg"
   xmlns:sodipodi="http://sodipodi.sourceforge.net/DTD/sodipodi-0.dtd"
   xmlns:inkscape="http://www.inkscape.org/namespaces/inkscape"
   id="svg378"
   height="480"
   width="640"
   version="1"
   y="0"
   x="0"
   sodipodi:docname="fo.svg"
   inkscape:version="0.92.0 r">
  <defs
     id="defs10">
    <clipPath
       id="clipPath3133"
       clipPathUnits="userSpaceOnUse">
      <rect
         style="fill-opacity:0.67000002"
         id="rect3135"
         height="512"
         width="682.66998"
         y="7.1053998e-15"
         x="-85.333" />
    </clipPath>
    <clipPath
       id="clipPath3688"
       clipPathUnits="userSpaceOnUse">
      <rect
         style="fill-opacity:0.67000002"
         id="rect3690"
         height="480"
         width="640"
         y="32"
         x="-78.014999" />
    </clipPath>
  </defs>
  <sodipodi:namedview
     pagecolor="#ffffff"
     bordercolor="#666666"
     borderopacity="1"
     objecttolerance="10"
     gridtolerance="10"
     guidetolerance="10"
     inkscape:pageopacity="0"
     inkscape:pageshadow="2"
     inkscape:window-width="1020"
     inkscape:window-height="1035"
     id="namedview8"
     showgrid="false"
     inkscape:zoom="0.69532167"
     inkscape:cx="298.73468"
     inkscape:cy="217.17176"
     inkscape:window-x="848"
     inkscape:window-y="34"
     inkscape:window-maximized="0"
     inkscape:current-layer="svg378" />
  <metadata
     id="metadata4346">
    <rdf:RDF>
      <cc:Work
         rdf:about="">
        <dc:format>image/svg+xml</dc:format>
        <dc:type
           rdf:resource="http://purl.org/dc/dcmitype/StillImage" />
        <dc:title></dc:title>
      </cc:Work>
    </rdf:RDF>
  </metadata>
  <g
     style="fill-rule:evenodd;stroke-width:0pt"
     id="flag"
     clip-path="url(#clipPath3688)"
     transform="translate(78.015,-32)">
    <rect
       style="fill:#ffffff"
       id="blarfeldur"
       height="480"
       width="663.90997"
       y="32"
       x="-78.014999" />
    <path
       style="fill:#003897"
       inkscape:connector-curvature="0"
       id="hviturkross"
       d="m -76.033,218.67 h 185.9 V 32 h 106.23 v 186.67 h 371.79 V 325.34 H 216.097 V 512.01 H 109.867 V 325.34 h -185.9 z" />
    <path
       style="fill:#d72828"
       inkscape:connector-curvature="0"
       id="raudurkross"
       d="m -76.033,245.33 h 212.45 V 32 h 53.113 v 213.33 h 398.35 v 53.333 H 189.53 v 213.33 h -53.113 v -213.33 h -212.45 z" />
  </g>
</svg>
